public/icons/static/sinatra.svg

<svg width="246" height="162" viewBox="0 0 246 162" fill="none" xmlns="http://www.w3.org/2000/svg">
<path d="M3.90001 128.8C3.90001 128.8 -16.7 88.8001 51.3 66.4001C83.1 55.9001 120.4 49.0001 153.7 47.8001C191.7 46.5001 225.4 53.1001 240.1 75.5001C250.7 91.7001 244.3 111.5 223.8 126.9C211.5 136.1 184.5 145.3 166.5 150.5C148.5 155.6 113.2 162.5 84.3 160.9C55.4 159.3 19.5 155.1 3.90001 128.8V128.8Z" fill="#F3EFE9"/>
<path d="M58.3 96.9C52.4 92.6 44.1 71.5 47.3 66.9C50.5 62.3 55.3 52.7 58 43.3C60.7 34 64.5 14.2 72 7.20003C79.5 0.200025 90.7 0.200025 105.5 1.80003C120.2 3.40003 163.3 11.2 173.8 14.9C184.2 18.6 197.8 25.6 197 41.9C196.2 58.2 197.7 66.3 195.8 75.4C193.9 84.5 174.1 102.2 149.2 103.5C124.2 105 64.2 101.2 58.3 96.9V96.9Z" fill="#F3EFE9"/>
<path d="M196.6 72.6999C196.3 72.6999 196.2 73.5999 195.8 74.0999C192.5 79.4999 182.7 88.6999 160.4 88.6999H99.8C61.6 88.6999 50.5 78.3999 47.7 70.9999C47.5 70.2999 47.2 69.3999 46.9 69.3999C46.6 69.3999 46.4 70.9999 46.4 70.9999L43.5 98.6999C43.5 111.4 76.4 121.7 118.7 121.7C161 121.7 197.3 115.7 197.3 98.6999C197.3 98.6999 197.5 81.7999 197.4 74.2999C197.4 73.4999 197.3 72.6999 196.6 72.6999V72.6999Z" fill="#262222"/>
</svg>

<svg xmlns="http://www.w3.org/2000/svg" fill="none" viewBox="0 0 246 162">
  <path fill="#F3EFE9" d="M3.9 128.8s-20.6-39.9999 47.4-62.3999c31.8-10.5 69.1-17.4 102.4-18.6 38-1.3 71.7 5.3 86.4 27.7 10.6 16.2 4.2 35.9999-16.3 51.3999-12.3 9.2-39.3 18.4-57.3 23.6-18 5.1-53.3 12-82.2 10.4-28.9-1.6-64.8-5.8-80.4-32.1Z"/>
  <path fill="#F3EFE9" d="M58.3 96.9c-5.9-4.3-14.2-25.4-11-30 3.2-4.6 8-14.2 10.7-23.6 2.7-9.3 6.5-29.1 14-36.1s18.7-7 33.5-5.4c14.7 1.6 57.8 9.4 68.3 13.1 10.4 3.7 24 10.7 23.2 27-.8 16.3.7 24.4-1.2 33.5-1.9 9.1-21.7 26.8-46.6 28.1-25 1.5-85-2.3-90.9-6.6Z"/>
  <path fill="#262222" d="M196.6 72.6999c-.3 0-.4.9-.8 1.4-3.3 5.4-13.1 14.6-35.4 14.6H99.8c-38.2 0-49.3-10.3-52.1-17.7-.2-.7-.5-1.6-.8-1.6-.3 0-.5 1.6-.5 1.6l-2.9 27.7C43.5 111.4 76.4 121.7 118.7 121.7c42.3 0 78.6-6 78.6-23.0001 0 0 .2-16.9.1-24.4 0-.8-.1-1.6-.8-1.6Z"/>
</svg>
